X:35
T:Ti-Jean Morin
R:reel
M:4/4
L:1/8
K:D
dAd | fdcd edAd | fdcd cdAd | fdcd efed | cABc ddAd |
fdcd edAd | fdcd cdAd | fdcd efed | cABc d2AF ||
EAAA B2AG | FDFD E2AG | FAAA B2AA |cABc d2AF |
EAAA B2AG | FDFD E2AG | FAAA B2AA | cABc ddAd ||
